outputs/icons/hardware/printer_round.svg

<svg xmlns="http://www.w3.org/2000/svg" width="1200" height="1200" fill="none"><g clip-path="url(#a)"><path fill="#000" d="M950 400H250c-83 0-150 67-150 150v200c0 55 45 100 100 100h100v100c0 55 45 100 100 100h400c55 0 100-45 100-100V850h100c55 0 100-45 100-100V550c0-83-67-150-150-150M750 950H450c-27.5 0-50-22.5-50-50V700h400v200c0 27.5-22.5 50-50 50m200-350c-27.5 0-50-22.5-50-50s22.5-50 50-50 50 22.5 50 50-22.5 50-50 50M850 150H350c-27.5 0-50 22.5-50 50v100c0 27.5 22.5 50 50 50h500c27.5 0 50-22.5 50-50V200c0-27.5-22.5-50-50-50"/></g><defs><clipPath id="a"><path fill="#fff" d="M0 0h1200v1200H0z"/></clipPath></defs></svg>

<svg width="1200" height="1200" viewBox="0 0 1200 1200" fill="none" xmlns="http://www.w3.org/2000/svg"><g clip-path="url(#clip0_750_1655)"><path d="M950 400H250C167 400 100 467 100 550V750C100 805 145 850 200 850H300V950C300 1005 345 1050 400 1050H800C855 1050 900 1005 900 950V850H1000C1055 850 1100 805 1100 750V550C1100 467 1033 400 950 400ZM750 950H450C422.5 950 400 927.5 400 900V700H800V900C800 927.5 777.5 950 750 950ZM950 600C922.5 600 900 577.5 900 550C900 522.5 922.5 500 950 500C977.5 500 1000 522.5 1000 550C1000 577.5 977.5 600 950 600ZM850 150H350C322.5 150 300 172.5 300 200V300C300 327.5 322.5 350 350 350H850C877.5 350 900 327.5 900 300V200C900 172.5 877.5 150 850 150Z" fill="black"/></g><defs><clipPath id="clip0_750_1655"><path width="24" fill="white" d="M0 0H1200V1200H0V0z"/></clipPath></defs></svg>
